pro/src/icons/stroke-virtual-thing.svg

<svg  width="48" height="48" viewBox="0 0 48 48" fill="none" xmlns="http://www.w3.org/2000/svg">
<path id="icon" fill-rule="evenodd" clip-rule="evenodd" d="M19.2113 7.52825L23.5711 6.06868C23.8455 5.9774 24.1536 5.97717 24.4279 6.06837L24.4289 6.06868L41.1902 11.6977C41.7024 11.8705 41.9995 12.3091 41.9995 12.75V35.25C41.9995 35.691 41.7022 36.1297 41.1899 36.3024L25.0052 41.7378V36.12C25.0052 35.5677 24.5574 35.12 24.005 35.12C23.4526 35.12 23.0047 35.5677 23.0047 36.12V41.7408L6.80964 36.2922C6.29757 36.1194 6.0005 35.6809 6.0005 35.24V13.1119C6.05425 13.1421 6.11157 13.1676 6.17213 13.188L12.5136 15.2786C13.3343 15.5218 13.8261 15.2313 14.0026 14.7826C14.1918 14.3016 14.0187 13.6462 13.5 13.5L7.39832 11.4899L13.8911 9.30788C14.4147 9.1319 14.6965 8.56486 14.5205 8.04136C14.3445 7.51787 13.7773 7.23614 13.2537 7.41212L6.17112 9.79239C4.90304 10.2197 4 11.381 4 12.74V35.24C4 36.599 4.90352 37.7604 6.1716 38.1878L22.9385 43.8287C23.6239 44.0571 24.3761 44.0571 25.0615 43.8287L41.8289 38.1976C43.097 37.7703 44 36.609 44 35.25V12.75C44 11.391 43.097 10.2297 41.8289 9.80239L25.0637 4.17205L25.0615 4.17132C24.3761 3.94289 23.6239 3.94289 22.9385 4.17132L18.5761 5.63175C18.0523 5.80712 17.7698 6.37383 17.9452 6.89753C18.1207 7.42123 18.6875 7.70362 19.2113 7.52825ZM29.5475 16.3509L29.5534 16.3531C31.8265 17.2459 33.2372 19.4756 32.7988 21.9674C34.7318 22.7799 36 24.7129 36 26.8447C36 29.6847 33.6672 32 30.9167 32H17.0833C14.264 32 12 29.6813 12 26.8447C12 24.2665 13.767 22.0816 16.234 21.6648C16.5868 19.99 17.6829 18.6516 19.224 18.0311C20.6397 17.4372 22.2428 17.5042 23.5433 18.2525C24.8848 16.132 27.3623 15.5347 29.5475 16.3509ZM31.4963 23.6136L31.4935 23.6131C31.1941 23.5516 30.9795 23.3421 30.857 23.1154C30.7349 22.8897 30.6823 22.6102 30.7343 22.3429L30.7412 22.3072L30.7544 22.2734C31.1098 21.3606 31.0727 20.504 30.7477 19.7998C30.4214 19.0931 29.7886 18.5047 28.8915 18.1668L28.8875 18.1653C28.0216 17.8279 27.1778 17.8354 26.4719 18.1357C25.7708 18.434 25.1748 19.0339 24.8182 19.9437C24.5949 20.605 23.8286 20.8157 23.3024 20.3832L23.2958 20.3778L23.2894 20.372C22.3493 19.527 21.069 19.2947 19.9735 19.7686L19.967 19.7713C18.8007 20.2506 18.0514 21.3201 17.9907 22.565C17.9851 23.1138 17.5537 23.5533 17.0181 23.5533C15.2781 23.5533 13.88 24.9801 13.88 26.8439C13.88 28.6362 15.3387 30.1346 17.0832 30.1346H30.9165C32.6611 30.1346 34.1197 28.6361 34.1197 26.8439C34.1197 25.2304 33.0177 23.9142 31.4963 23.6136Z" fill="currentColor"/>
</svg>

<svg xmlns="http://www.w3.org/2000/svg" width="48" height="48" fill="none"><path id="icon" fill="currentColor" fill-rule="evenodd" d="m19.211 7.528 4.36-1.46c.274-.09.583-.09.857 0l16.762 5.63c.512.172.81.611.81 1.052v22.5c0 .441-.298.88-.81 1.052l-16.185 5.436V36.12a1 1 0 0 0-2 0v5.62L6.81 36.293C6.298 36.12 6 35.681 6 35.24V13.112q.082.045.172.076l6.342 2.09c.82.244 1.312-.047 1.489-.495.189-.481.016-1.137-.503-1.283l-6.102-2.01 6.493-2.182a1 1 0 1 0-.637-1.896L6.17 9.792C4.903 10.22 4 11.381 4 12.74v22.5c0 1.359.904 2.52 2.172 2.948l16.767 5.64a3.38 3.38 0 0 0 2.122 0l16.768-5.63C43.097 37.77 44 36.609 44 35.25v-22.5c0-1.359-.903-2.52-2.171-2.948l-16.765-5.63h-.003a3.37 3.37 0 0 0-2.122 0l-4.363 1.46a1 1 0 1 0 .635 1.896m10.337 8.823.005.002c2.273.893 3.684 3.123 3.246 5.614C34.732 22.78 36 24.713 36 26.845 36 29.685 33.667 32 30.917 32H17.083C14.264 32 12 29.681 12 26.845c0-2.578 1.767-4.763 4.234-5.18.353-1.675 1.449-3.013 2.99-3.634 1.416-.594 3.019-.527 4.32.222 1.34-2.121 3.818-2.718 6.003-1.902m1.948 7.263h-.002a.95.95 0 0 1-.637-.499 1.18 1.18 0 0 1-.123-.772l.007-.036.013-.034c.356-.912.319-1.769-.006-2.473-.327-.707-.96-1.295-1.857-1.633l-.003-.002c-.866-.337-1.71-.33-2.416-.03-.701.299-1.297.899-1.654 1.809a.944.944 0 0 1-1.516.44l-.006-.006-.007-.006c-.94-.845-2.22-1.077-3.315-.603l-.007.002a3.16 3.16 0 0 0-1.976 2.794.983.983 0 0 1-.973.988c-1.74 0-3.138 1.427-3.138 3.29 0 1.793 1.459 3.292 3.203 3.292h13.834c1.744 0 3.203-1.499 3.203-3.291 0-1.614-1.102-2.93-2.624-3.23" clip-rule="evenodd"/></svg>
